X:1
T:Avant-deux du Trgor
Z:Roger Ngaret (94-95)
R:avantdeux
C:Trad.
S:
A:Bretagne
Q:1/4=120
M:2/4
L:1/16
K:G
B | "G"B3B "Am"A3c | B4 A3B | "G"B3B "Am"A3c |1 B4 A3 :|2
"G"G8 |: "D"E2E2 "G"G4 | "D"A4 "G"B4 | "D"E2E2 "G"G4 |1
"Am"F4 E4 :|2 F4 E3 |]
